X: 18375
T: Hundred Pipers
R: jig
M: 6/8
K: Amajor
M:12/8
|:c2E EFE F2A A2f|e2c cBA c2B BAB|
c2E EFE F2A A2f|e2c BcB A3 A3:|
|:e3 ece f2a agf|e2c cBA c2B Bcd|
e2e ece f2a agf|ecA BcB A3 A3:|

